X:1
T:A Picture From Life's Other Side
M:4/4
L:1/8
K:D
 A,A,| A,2 A,A, D/2 D3/2 E2| F/2 F3/2 z4 F2| G2 GG D/2 D3/2 E2| F2 z4|\
 A2| A/2 E3/2 F2 G2 FE| D/2 F3/2 z4 F2| F/2 E3/2 D2 B,2 DF| E2 z4|\
 A,2| A,/2 A,3/2 A,2 D2 DE| F/2 F3/2 z4 F2| G2 GG G/2 D3/2 E2| F2 z4 F2|\
 B,2 B,/2 B,3/2 E2 DB,| A,D E2 F2 FF| F/2 A3/2 F2 E2 DE| D6||
